src/images/pages/trade-explanation/zh_tw/down.svg

<?xml version="1.0" encoding="UTF-8"?>
<svg width="299px" height="197px" viewBox="0 0 299 197" version="1.1" xmlns="http://www.w3.org/2000/svg" xmlns:xlink="http://www.w3.org/1999/xlink">
    <!-- Generator: Sketch 53.1 (72631) - https://sketchapp.com -->
    <title>down</title>
    <desc>Created with Sketch.</desc>
    <g id="Page-1" stroke="none" stroke-width="1" fill="none" fill-rule="evenodd">
        <g id="down" fill-rule="nonzero">
            <polygon id="Path" fill="#F1F2F2" points="0 0 299 0 299 197 0 197"></polygon>
            <path d="M1.98671096,1.9798995 L1.98671096,195.020101 L297.013289,195.020101 L297.013289,1.9798995 L1.98671096,1.9798995 Z M299,0 L299,197 L0,197 L0,0 L299,0 Z" id="Path" fill="#C2C2C2"></path>
            <path d="M5,53.8937051 L5,52.6865475 L295,52.6865475 L295,53.8937051 L5,53.8937051 Z M5,74.2212672 L5,73.0141095 L295,73.0141095 L295,74.2212672 L5,74.2212672 Z M5,94.5113934 L5,93.3042358 L295,93.3042358 L295,94.5113934 L5,94.5113934 Z M5,135.129081 L5,133.921924 L295,133.921924 L295,135.129081 L5,135.129081 Z M5,155.419208 L5,154.21205 L295,154.21205 L295,155.419208 L5,155.419208 Z M5,175.709335 L5,174.502177 L295,174.502177 L295,175.709335 L5,175.709335 Z M39.4203806,33 L40.6286516,33 L40.6286516,193 L39.4203806,193 L39.4203806,33 Z M76.1287678,33 L77.3370388,33 L77.3370388,193 L76.1287678,193 L76.1287678,33 Z M112.799735,33 L114.008006,33 L114.008006,193 L112.799735,193 L112.799735,33 Z M149.508122,33 L150.716393,33 L150.716393,193 L149.508122,193 L149.508122,33 Z M186.17909,33 L187.387361,33 L187.387361,193 L186.17909,193 L186.17909,33 Z M222.850058,33 L224.058329,33 L224.058329,193 L222.850058,193 L222.850058,33 Z M259.558445,33 L260.766716,33 L260.766716,193 L259.558445,193 L259.558445,33 Z" id="Shape" fill="#DFDEDE"></path>
            <polygon id="Path" fill="#C2C2C2" points="1 30 1 28 298 28 298 30"></polygon>
            <path d="M188.521984,145.307379 L153.10252,145.307379 L147.647544,137 L142.192568,145.307379 L106.773104,145.307379 C104.121379,145.307379 102,147.469573 102,150.162833 L102,175.236703 C102,177.929962 104.159261,180.092157 106.773104,180.092157 L188.559866,180.092157 C191.211591,180.092157 193.33297,177.929962 193.33297,175.236703 L193.33297,150.162833 C193.33297,147.469573 191.173709,145.307379 188.521984,145.307379 Z" id="Path" fill="#E88024"></path>
            <polygon id="Path" fill="#2A3052" points="5.26159903 116.411393 5.26159903 114.926326 293.612573 114.926326 293.612573 116.411393"></polygon>
            <path d="M75.1471752,141.428851 C74.523214,142.126053 73.471924,142.235714 72.7175089,141.682291 L39.254469,117.134507 C38.4450141,116.540708 38.2701905,115.403146 38.8639897,114.593691 C39.4577888,113.784236 40.595351,113.609412 41.404806,114.203211 L73.5380371,137.775476 L107.057762,100.32116 C107.772989,99.5219785 109.02107,99.5125499 109.748289,100.300834 L141.524331,134.745128 L184.70331,92.1202033 C185.590968,91.2439358 187.077293,91.5015982 187.618208,92.6255161 L229.637241,179.933043 L257.752096,155.093558 C258.504429,154.428871 259.653152,154.499923 260.317839,155.252257 C260.982526,156.00459 260.911474,157.153312 260.15914,157.817999 L230.244406,184.247678 C229.341207,185.045655 227.925641,184.759725 227.402983,183.67374 L185.446103,96.4953548 L142.74023,138.653244 C142.008654,139.375433 140.824247,139.347755 140.127204,138.592181 L108.432679,104.236249 L75.1471752,141.428851 Z" id="Path" fill="#2A3052"></path>
            <ellipse id="Oval" fill="#FFFFFF" opacity="0.6" cx="40.3296375" cy="115.668859" rx="8.06728138" ry="8.49574874"></ellipse>
            <path d="M40.3296375,125.376422 C35.1905082,125.376422 31.0505419,121.016575 31.0505419,115.668859 C31.0505419,110.321143 35.1905082,105.961296 40.3296375,105.961296 C45.4687668,105.961296 49.6087331,110.321143 49.6087331,115.668859 C49.6087331,121.016575 45.4687668,125.376422 40.3296375,125.376422 Z M40.3296375,122.952794 C44.1013811,122.952794 47.1851047,119.705288 47.1851047,115.668859 C47.1851047,111.63243 44.1013811,108.384925 40.3296375,108.384925 C36.5578939,108.384925 33.4741703,111.63243 33.4741703,115.668859 C33.4741703,119.705288 36.5578939,122.952794 40.3296375,122.952794 Z" id="Oval" fill="#E88024"></path>
            <ellipse id="Oval" fill="#FFFFFF" opacity="0.6" cx="258.955618" cy="155.854879" rx="8.06728138" ry="8.49574874"></ellipse>
            <path d="M258.955618,165.563432 C253.816489,165.563432 249.676522,161.203585 249.676522,155.855869 C249.676522,150.508153 253.816489,146.148306 258.955618,146.148306 C264.094747,146.148306 268.234714,150.508153 268.234714,155.855869 C268.234714,161.203585 264.094747,165.563432 258.955618,165.563432 Z M258.955618,163.139804 C262.727362,163.139804 265.811085,159.892298 265.811085,155.855869 C265.811085,151.81944 262.727362,148.571935 258.955618,148.571935 C255.183874,148.571935 252.100151,151.81944 252.100151,155.855869 C252.100151,159.892298 255.183874,163.139804 258.955618,163.139804 Z" id="Oval" fill="#E88024"></path>
            <g id="Group" opacity="0.9" transform="translate(251.346000, 129.166000)" fill="#6D6E71">
                <path d="M14.403,12.37 L15.288,12.37 L15.288,5.237 L16.458,7.327 L17.013,6.467 C15.97,5.112 15.395,4.382 15.288,4.279 L15.298,3.504 L16.708,3.504 L16.708,2.644 L15.298,2.644 L15.288,0.21 L14.403,0.21 L14.403,2.643 L12.716,2.643 L12.716,3.503 L14.296,3.503 C14.199,4.469 12.97,7.233 12.332,7.904 C12.344,7.908 12.487,8.259 12.762,8.957 C13.503,7.629 13.897,6.832 14.403,5.361 L14.403,12.369 L14.403,12.37 Z M0.661,12.421 L0.661,0.971 L9.624,0.971 L9.624,12.421 L8.607,12.421 L8.607,11.571 L1.662,11.571 L1.662,12.421 L0.662,12.421 L0.661,12.421 Z M8.696,1.783 L1.663,1.783 L1.663,4.058 L8.696,4.058 L8.696,1.783 Z M8.673,4.888 L1.686,4.888 L1.686,7.23 L8.673,7.23 L8.673,4.888 Z M8.66,8.151 L1.7,8.151 L1.7,10.621 L8.66,10.621 L8.66,8.151 Z M17.43,0.972 L24.763,0.972 L24.763,1.772 L22.563,1.772 L22.563,2.765 L24.544,2.765 L24.544,5.882 L17.741,5.882 L17.741,2.765 L19.743,2.765 L19.743,1.772 L17.43,1.772 L17.43,0.972 Z M21.776,1.833 L20.486,1.833 L20.486,2.783 L21.776,2.783 L21.776,1.833 Z M22.534,3.538 L22.534,5.158 L23.687,5.158 L23.687,3.538 L22.534,3.538 Z M21.761,3.528 L20.538,3.528 L20.538,5.155 L21.761,5.155 L21.761,3.528 Z M19.801,3.507 L18.627,3.507 L18.627,5.17 L19.801,5.17 L19.801,3.507 Z M24.175,6.509 L24.175,7.282 L18.028,7.282 L18.028,6.509 L24.175,6.509 Z M24.763,8.295 L24.763,9.034 L21.469,9.034 L21.469,12.364 L20.652,12.364 L20.652,9.034 L17.44,9.034 L17.44,8.294 L24.763,8.295 Z" id="Shape"></path>
                <path d="M22.47,10.163 C22.748,9.883 22.937,9.705 23.036,9.627 C23.382,9.89 24.576,11.055 25.011,11.713 C24.861,11.873 24.647,12.086 24.366,12.349 C24.151,11.925 23.519,11.196 22.47,10.163 Z M19.142,9.356 C19.432,9.604 19.634,9.776 19.748,9.87 C19.028,10.826 18.303,11.57 17.576,12.104 C17.3774744,11.8855062 17.18959,11.6575754 17.013,11.421 C18.161,10.491 18.87,9.804 19.142,9.356 Z" id="Shape"></path>
            </g>
            <path d="M139.476,166.842 L139.476,168.118 C139.476,168.25 139.454,168.382 139.454,168.514 L141.786,168.514 L141.786,166.842 L139.476,166.842 Z M141.786,165.808 L141.786,164.026 L139.476,164.026 L139.476,165.808 L141.786,165.808 Z M139.388,169.548 C139.19,171 138.728,172.232 138.002,173.222 L137.034,172.342 C137.826,171.242 138.222,169.856 138.244,168.184 L138.244,162.882 L142.996,162.882 L142.996,171.814 C142.996,172.694 142.512,173.134 141.566,173.134 L140.466,173.134 L140.158,171.924 C140.51,171.946 140.862,171.968 141.17,171.968 C141.566,171.968 141.786,171.748 141.786,171.352 L141.786,169.548 L139.388,169.548 Z M139.08,155.468 L137.232,155.468 L137.232,154.28 L146.274,154.28 C146.098,153.884 145.878,153.51 145.658,153.18 L147.22,152.916 C147.462,153.334 147.682,153.796 147.88,154.28 L156.768,154.28 L156.768,155.468 L140.488,155.468 L140.488,156.656 L155.448,156.656 L155.448,157.734 L139.08,157.734 L139.08,155.468 Z M155.866,172.804 L154.832,172.804 C154.106,172.804 153.754,172.452 153.754,171.792 L153.754,168.778 L153.072,169.24 C152.698,168.492 152.192,167.7 151.576,166.842 L151.576,167.216 C151.576,168.712 151.466,169.878 151.29,170.67 C151.07,171.462 150.652,172.32 149.992,173.2 L149.002,172.32 L148.65,172.738 C148.122,172.078 147.55,171.506 146.956,171.022 L147.704,170.318 C148.298,170.758 148.848,171.286 149.332,171.858 C149.684,171.308 149.926,170.802 150.058,170.34 C150.234,169.724 150.344,168.668 150.344,167.216 L150.344,162.882 L154.986,162.882 L154.986,171.44 C154.986,171.616 155.074,171.726 155.272,171.726 L155.668,171.726 C155.822,171.726 155.954,171.594 156.042,171.374 C156.108,171.132 156.174,170.318 156.24,168.932 L157.23,169.284 C157.098,170.868 156.966,171.858 156.812,172.232 C156.636,172.606 156.306,172.804 155.866,172.804 Z M151.576,166.49 L152.236,166.094 C152.896,166.974 153.402,167.722 153.754,168.382 L153.754,164.114 L151.576,164.114 L151.576,166.49 Z M144.118,162.882 L149.134,162.882 L149.134,169.988 L144.118,169.988 L144.118,162.882 Z M147.902,169.02 L147.902,167.854 L145.328,167.854 L145.328,169.02 L147.902,169.02 Z M145.328,167.018 L147.902,167.018 L147.902,165.896 L145.328,165.896 L145.328,167.018 Z M145.328,165.082 L147.902,165.082 L147.902,163.872 L145.328,163.872 L145.328,165.082 Z M145.46,170.34 L146.252,171.044 C145.68,171.858 144.954,172.562 144.118,173.178 L143.436,172.276 C144.228,171.726 144.888,171.088 145.46,170.34 Z M139.74,158.702 L154.194,158.702 L154.194,161.892 L139.74,161.892 L139.74,158.702 Z M152.72,160.968 L152.72,159.626 L141.214,159.626 L141.214,160.968 L152.72,160.968 Z M160.64,155.292 L162.686,155.292 L162.356,166.776 L160.992,166.776 L160.64,155.292 Z M161.652,168.382 C162.048,168.382 162.356,168.492 162.62,168.756 C162.862,168.998 162.994,169.306 162.994,169.68 C162.994,170.076 162.862,170.384 162.62,170.626 C162.356,170.868 162.026,171 161.652,171 C161.278,171 160.97,170.868 160.728,170.626 C160.464,170.362 160.332,170.054 160.332,169.68 C160.332,169.306 160.464,168.998 160.728,168.756 C160.97,168.492 161.278,168.382 161.652,168.382 Z" id="贏!" fill="#FFFFFF"></path>
            <path d="M16.17,10.165 L21.105,10.165 L21.105,15.265 L19.68,15.265 L19.68,17.215 L21.21,17.215 L21.21,18.685 L19.68,18.685 L19.68,20.8 C20.19,20.65 20.685,20.485 21.165,20.335 L21.165,21.895 C19.635,22.405 17.865,22.885 15.885,23.32 L15.435,21.82 L16.08,21.685 L16.08,16.54 L17.46,16.54 L17.46,21.385 C17.73,21.325 17.985,21.265 18.225,21.205 L18.225,15.265 L16.17,15.265 L16.17,10.165 Z M19.62,13.825 L19.62,11.605 L17.67,11.605 L17.67,13.825 L19.62,13.825 Z M23.415,13.72 C23.205,14.47 22.965,15.145 22.695,15.775 L21.405,14.965 C22.02,13.585 22.455,12.115 22.725,10.57 L24.06,10.855 C23.97,11.335 23.895,11.785 23.805,12.22 L24.78,12.22 L24.78,9.73 L26.25,9.73 L26.25,12.22 L28.5,12.22 L28.5,13.72 L26.235,13.72 C26.19,14.605 26.13,15.43 26.04,16.18 L29.07,16.18 L29.07,17.695 L26.49,17.695 C26.865,19.63 27.885,21.145 29.535,22.24 L28.665,23.635 C27.075,22.42 26.01,20.86 25.455,18.97 C25.335,19.33 25.215,19.66 25.095,19.975 C24.405,21.535 23.31,22.735 21.78,23.575 L20.985,22.315 C22.455,21.415 23.445,20.275 23.955,18.925 C24.075,18.535 24.195,18.13 24.3,17.695 L21.585,17.695 L21.585,16.18 L24.57,16.18 C24.66,15.415 24.735,14.59 24.765,13.72 L23.415,13.72 Z" id="跌" fill="#000000"></path>
            <path d="M28.375,142.67 L30.37,142.67 L30.37,140.945 L28.78,140.945 L28.78,140.015 L36.055,140.015 L36.055,140.945 L34.6,140.945 L34.6,142.67 L36.535,142.67 L36.535,143.63 L34.6,143.63 L34.6,147.08 L33.61,147.08 L33.61,143.63 L31.27,143.63 C31.18,144.425 31,145.1 30.73,145.64 C30.37,146.345 29.755,146.9 28.915,147.29 L28.375,146.435 C29.11,146.075 29.635,145.595 29.935,144.995 C30.1,144.605 30.22,144.14 30.295,143.63 L28.375,143.63 L28.375,142.67 Z M33.61,142.67 L33.61,140.945 L31.345,140.945 L31.345,142.67 L33.61,142.67 Z M27.385,136.955 L27.385,138.05 L30.76,138.05 L30.76,136.955 L27.385,136.955 Z M30.76,136.19 L30.76,135.035 L27.385,135.035 L27.385,136.19 L30.76,136.19 Z M34.12,136.955 L34.12,138.02 L37.585,138.02 L37.585,136.955 L34.12,136.955 Z M37.585,136.19 L37.585,135.065 L34.12,135.065 L34.12,136.19 L37.585,136.19 Z M31.81,134.18 L31.81,138.92 L27.385,138.92 L27.385,147.365 L26.305,147.365 L26.305,134.18 L31.81,134.18 Z M37.585,138.875 L33.07,138.875 L33.07,134.195 L38.65,134.195 L38.65,145.82 C38.65,146.81 38.2,147.305 37.3,147.305 C36.76,147.305 36.22,147.29 35.68,147.26 L35.425,146.3 C35.965,146.33 36.46,146.36 36.91,146.36 C37.36,146.36 37.585,146.06 37.585,145.49 L37.585,138.875 Z M42.46,133.685 L43.525,133.775 C43.39,134.795 43.255,135.74 43.12,136.61 L45.34,136.61 L45.34,137.24 C45.22,139.67 44.8,141.755 44.08,143.525 C44.785,144.26 45.37,144.92 45.82,145.52 L45.1,146.36 C44.68,145.805 44.185,145.205 43.6,144.575 C43,145.715 42.265,146.705 41.365,147.545 L40.69,146.69 C41.575,145.88 42.295,144.92 42.865,143.78 C42.265,143.165 41.62,142.535 40.93,141.875 C41.29,140.57 41.605,139.16 41.875,137.645 L40.675,137.645 L40.675,136.61 L42.055,136.61 C42.205,135.665 42.34,134.69 42.46,133.685 Z M43.315,142.745 C43.885,141.245 44.215,139.55 44.32,137.645 L42.955,137.645 C42.67,139.22 42.385,140.525 42.085,141.56 C42.52,141.965 42.925,142.355 43.315,142.745 Z M53.26,141.125 L53.26,147.515 L52.225,147.515 L52.225,146.615 L47.635,146.615 L47.635,147.515 L46.6,147.515 L46.6,141.125 L53.26,141.125 Z M47.635,145.595 L52.225,145.595 L52.225,142.115 L47.635,142.115 L47.635,145.595 Z M46.015,139.775 L45.85,138.8 C46.72,138.35 47.8,136.67 49.09,133.73 L50.11,134.075 C49.21,136.025 48.325,137.57 47.425,138.725 C49.105,138.62 50.71,138.44 52.225,138.2 C51.805,137.375 51.385,136.61 50.95,135.92 L51.88,135.47 C52.705,136.79 53.485,138.23 54.205,139.805 L53.2,140.285 C53.02,139.88 52.855,139.49 52.675,139.115 C50.68,139.4 48.46,139.625 46.015,139.775 Z" id="開始" fill="#2A3052"></path>
            <path d="M251.29,183.705 L252.265,183.825 C252.19,185.115 252.01,186.27 251.725,187.26 L250.75,186.975 C251.05,186.015 251.23,184.935 251.29,183.705 Z M253.855,183.48 C254.065,184.41 254.26,185.43 254.44,186.54 L253.435,186.765 C253.3,185.595 253.15,184.575 252.97,183.675 L253.855,183.48 Z M255.34,179.67 C255.67,180.525 255.97,181.5 256.24,182.61 L255.34,182.85 C255.28,182.595 255.22,182.34 255.16,182.1 C253.75,182.52 252.385,182.805 251.095,182.97 L250.81,181.98 C251.005,181.905 251.17,181.8 251.305,181.68 C251.86,181.14 252.52,180.24 253.3,178.98 C252.55,179.1 251.77,179.22 250.99,179.34 L250.72,178.35 C250.885,178.275 251.035,178.14 251.17,177.945 C251.95,176.715 252.61,175.29 253.18,173.7 L254.215,174.105 C253.48,175.83 252.73,177.225 251.98,178.275 C252.61,178.2 253.255,178.11 253.885,178.005 C254.215,177.435 254.545,176.82 254.905,176.175 L255.91,176.535 C254.47,179.055 253.3,180.825 252.37,181.845 C253.21,181.695 254.065,181.515 254.935,181.29 C254.785,180.825 254.635,180.375 254.485,179.94 L255.34,179.67 Z M255.595,183.09 C255.955,183.87 256.255,184.725 256.525,185.625 L255.625,186.015 C255.355,185.025 255.07,184.14 254.755,183.36 L255.595,183.09 Z M256.06,175.68 L259.69,175.68 L259.69,173.76 L260.755,173.76 L260.755,175.68 L264.34,175.68 L264.34,176.715 L260.755,176.715 L260.755,178.995 L264.01,178.995 L264.01,180.03 L256.465,180.03 L256.465,178.995 L259.69,178.995 L259.69,176.715 L256.06,176.715 L256.06,175.68 Z M263.53,181.485 L263.53,187.5 L262.48,187.5 L262.48,186.81 L258.04,186.81 L258.04,187.5 L256.99,187.5 L256.99,181.485 L263.53,181.485 Z M258.04,185.79 L262.48,185.79 L262.48,182.505 L258.04,182.505 L258.04,185.79 Z M266.08,175.29 L271.945,175.29 L271.945,173.79 L273.055,173.79 L273.055,175.29 L278.89,175.29 L278.89,176.325 L273.055,176.325 L273.055,177.795 L277.78,177.795 L277.78,182.04 L273.97,182.04 C275.05,183.57 276.88,184.92 279.43,186.12 L278.695,187.05 C276.04,185.565 274.18,183.9 273.1,182.04 L273.055,182.04 L273.055,187.485 L271.945,187.485 L271.945,182.04 L271.9,182.04 C270.76,184.08 268.87,185.76 266.215,187.08 L265.585,186.09 C268.075,185.04 269.89,183.69 271.015,182.04 L267.25,182.04 L267.25,177.795 L271.945,177.795 L271.945,176.325 L266.08,176.325 L266.08,175.29 Z M276.7,181.05 L276.7,178.815 L273.055,178.815 L273.055,181.05 L276.7,181.05 Z M271.945,181.05 L271.945,178.815 L268.33,178.815 L268.33,181.05 L271.945,181.05 Z" id="結束" fill="#2A3052"></path>
        </g>
    </g>
</svg>

<svg width="299" height="197" xmlns="http://www.w3.org/2000/svg"><g fill-rule="nonzero" fill="none"><path fill="#F1F2F2" d="M0 0h299v197H0z"/><path d="M1.987 1.98v193.04h295.026V1.98H1.987zM299 0v197H0V0h299z" fill="#C2C2C2"/><path d="M5 53.894v-1.207h290v1.207H5zM5 74.22v-1.207h290v1.207H5zm0 20.29v-1.207h290v1.207H5zm0 40.618v-1.207h290v1.207H5zm0 20.29v-1.207h290v1.207H5zm0 20.29v-1.207h290v1.207H5zM39.42 33h1.209v160H39.42V33zm36.709 0h1.208v160h-1.208V33zm36.67 0h1.209v160H112.8V33zm36.71 0h1.207v160h-1.208V33zm36.67 0h1.208v160h-1.208V33zm36.671 0h1.208v160h-1.208V33zm36.708 0h1.209v160h-1.209V33z" fill="#DFDEDE"/><path fill="#C2C2C2" d="M1 30v-2h297v2z"/><path d="M188.522 145.307h-35.42L147.649 137l-5.455 8.307h-35.42c-2.652 0-4.773 2.163-4.773 4.856v25.074c0 2.693 2.16 4.855 4.773 4.855h81.787c2.652 0 4.773-2.162 4.773-4.855v-25.074c0-2.693-2.16-4.856-4.811-4.856z" fill="#E88024"/><path fill="#2A3052" d="M5.262 116.411v-1.485h288.35v1.485z"/><path d="M75.147 141.429a1.818 1.818 0 0 1-2.43.253l-33.463-24.547a1.818 1.818 0 1 1 2.15-2.932l32.134 23.572 33.52-37.454a1.818 1.818 0 0 1 2.69-.02l31.776 34.444 43.18-42.625a1.818 1.818 0 0 1 2.914.506l42.02 87.307 28.114-24.84a1.818 1.818 0 0 1 2.407 2.725l-29.915 26.43a1.818 1.818 0 0 1-2.841-.574l-41.957-87.179-42.706 42.158a1.818 1.818 0 0 1-2.613-.06l-31.694-34.357-33.286 37.193z" fill="#2A3052"/><ellipse fill="#FFF" opacity=".6" cx="40.33" cy="115.669" rx="8.067" ry="8.496"/><path d="M40.33 125.376c-5.14 0-9.28-4.36-9.28-9.707 0-5.348 4.14-9.708 9.28-9.708 5.139 0 9.279 4.36 9.279 9.708s-4.14 9.707-9.28 9.707zm0-2.423c3.771 0 6.855-3.248 6.855-7.284 0-4.037-3.084-7.284-6.855-7.284-3.772 0-6.856 3.247-6.856 7.284 0 4.036 3.084 7.284 6.856 7.284z" fill="#E88024"/><ellipse fill="#FFF" opacity=".6" cx="258.956" cy="155.855" rx="8.067" ry="8.496"/><path d="M258.956 165.563c-5.14 0-9.28-4.36-9.28-9.707 0-5.348 4.14-9.708 9.28-9.708 5.139 0 9.279 4.36 9.279 9.708s-4.14 9.707-9.28 9.707zm0-2.423c3.771 0 6.855-3.248 6.855-7.284 0-4.037-3.084-7.284-6.855-7.284-3.772 0-6.856 3.247-6.856 7.284 0 4.036 3.084 7.284 6.856 7.284z" fill="#E88024"/><g opacity=".9" fill="#6D6E71"><path d="M265.749 141.536h.885v-7.133l1.17 2.09.555-.86c-1.043-1.355-1.618-2.085-1.725-2.188l.01-.775h1.41v-.86h-1.41l-.01-2.434h-.885v2.433h-1.687v.86h1.58c-.097.966-1.326 3.73-1.964 4.401.012.004.155.355.43 1.053.741-1.328 1.135-2.125 1.641-3.596v7.009zm-13.742.051v-11.45h8.963v11.45h-1.017v-.85h-6.945v.85h-1.001zm8.035-10.638h-7.033v2.275h7.033v-2.275zm-.023 3.105h-6.987v2.342h6.987v-2.342zm-.013 3.263h-6.96v2.47h6.96v-2.47zm8.77-7.179h7.333v.8h-2.2v.993h1.981v3.117h-6.803v-3.117h2.002v-.993h-2.313v-.8zm4.346.861h-1.29v.95h1.29v-.95zm.758 1.705v1.62h1.153v-1.62h-1.153zm-.773-.01h-1.223v1.627h1.223v-1.627zm-1.96-.021h-1.174v1.663h1.174v-1.663zm4.374 3.002v.773h-6.147v-.773h6.147zm.588 1.786v.739h-3.294v3.33h-.817v-3.33h-3.212v-.74l7.323.001z"/><path d="M273.816 139.329c.278-.28.467-.458.566-.536.346.263 1.54 1.428 1.975 2.086-.15.16-.364.373-.645.636-.215-.424-.847-1.153-1.896-2.186zm-3.328-.807c.29.248.492.42.606.514-.72.956-1.445 1.7-2.172 2.234a9.192 9.192 0 0 1-.563-.683c1.148-.93 1.857-1.617 2.129-2.065z"/></g><path d="M139.476 166.842v1.276c0 .132-.022.264-.022.396h2.332v-1.672h-2.31zm2.31-1.034v-1.782h-2.31v1.782h2.31zm-2.398 3.74c-.198 1.452-.66 2.684-1.386 3.674l-.968-.88c.792-1.1 1.188-2.486 1.21-4.158v-5.302h4.752v8.932c0 .88-.484 1.32-1.43 1.32h-1.1l-.308-1.21c.352.022.704.044 1.012.044.396 0 .616-.22.616-.616v-1.804h-2.398zm-.308-14.08h-1.848v-1.188h9.042a7.51 7.51 0 0 0-.616-1.1l1.562-.264c.242.418.462.88.66 1.364h8.888v1.188h-16.28v1.188h14.96v1.078H139.08v-2.266zm16.786 17.336h-1.034c-.726 0-1.078-.352-1.078-1.012v-3.014l-.682.462c-.374-.748-.88-1.54-1.496-2.398v.374c0 1.496-.11 2.662-.286 3.454-.22.792-.638 1.65-1.298 2.53l-.99-.88-.352.418c-.528-.66-1.1-1.232-1.694-1.716l.748-.704c.594.44 1.144.968 1.628 1.54.352-.55.594-1.056.726-1.518.176-.616.286-1.672.286-3.124v-4.334h4.642v8.558c0 .176.088.286.286.286h.396c.154 0 .286-.132.374-.352.066-.242.132-1.056.198-2.442l.99.352c-.132 1.584-.264 2.574-.418 2.948-.176.374-.506.572-.946.572zm-4.29-6.314l.66-.396c.66.88 1.166 1.628 1.518 2.288v-4.268h-2.178v2.376zm-7.458-3.608h5.016v7.106h-5.016v-7.106zm3.784 6.138v-1.166h-2.574v1.166h2.574zm-2.574-2.002h2.574v-1.122h-2.574v1.122zm0-1.936h2.574v-1.21h-2.574v1.21zm.132 5.258l.792.704c-.572.814-1.298 1.518-2.134 2.134l-.682-.902a8.915 8.915 0 0 0 2.024-1.936zm-5.72-11.638h14.454v3.19H139.74v-3.19zm12.98 2.266v-1.342h-11.506v1.342h11.506zm7.92-5.676h2.046l-.33 11.484h-1.364l-.352-11.484zm1.012 13.09c.396 0 .704.11.968.374.242.242.374.55.374.924 0 .396-.132.704-.374.946a1.402 1.402 0 0 1-.968.374 1.26 1.26 0 0 1-.924-.374 1.28 1.28 0 0 1-.396-.946c0-.374.132-.682.396-.924.242-.264.55-.374.924-.374z" fill="#FFF"/><path d="M16.17 10.165h4.935v5.1H19.68v1.95h1.53v1.47h-1.53V20.8c.51-.15 1.005-.315 1.485-.465v1.56c-1.53.51-3.3.99-5.28 1.425l-.45-1.5.645-.135V16.54h1.38v4.845c.27-.06.525-.12.765-.18v-5.94H16.17v-5.1zm3.45 3.66v-2.22h-1.95v2.22h1.95zm3.795-.105c-.21.75-.45 1.425-.72 2.055l-1.29-.81c.615-1.38 1.05-2.85 1.32-4.395l1.335.285c-.09.48-.165.93-.255 1.365h.975V9.73h1.47v2.49h2.25v1.5h-2.265c-.045.885-.105 1.71-.195 2.46h3.03v1.515h-2.58c.375 1.935 1.395 3.45 3.045 4.545l-.87 1.395c-1.59-1.215-2.655-2.775-3.21-4.665-.12.36-.24.69-.36 1.005-.69 1.56-1.785 2.76-3.315 3.6l-.795-1.26c1.47-.9 2.46-2.04 2.97-3.39.12-.39.24-.795.345-1.23h-2.715V16.18h2.985c.09-.765.165-1.59.195-2.46h-1.35z" fill="#000"/><path d="M28.375 142.67h1.995v-1.725h-1.59v-.93h7.275v.93H34.6v1.725h1.935v.96H34.6v3.45h-.99v-3.45h-2.34c-.09.795-.27 1.47-.54 2.01-.36.705-.975 1.26-1.815 1.65l-.54-.855c.735-.36 1.26-.84 1.56-1.44.165-.39.285-.855.36-1.365h-1.92v-.96zm5.235 0v-1.725h-2.265v1.725h2.265zm-6.225-5.715v1.095h3.375v-1.095h-3.375zm3.375-.765v-1.155h-3.375v1.155h3.375zm3.36.765v1.065h3.465v-1.065H34.12zm3.465-.765v-1.125H34.12v1.125h3.465zm-5.775-2.01v4.74h-4.425v8.445h-1.08V134.18h5.505zm5.775 4.695H33.07v-4.68h5.58v11.625c0 .99-.45 1.485-1.35 1.485a29.2 29.2 0 0 1-1.62-.045l-.255-.96c.54.03 1.035.06 1.485.06.45 0 .675-.3.675-.87v-6.615zm4.875-5.19l1.065.09a128.68 128.68 0 0 1-.405 2.835h2.22v.63c-.12 2.43-.54 4.515-1.26 6.285.705.735 1.29 1.395 1.74 1.995l-.72.84a23.161 23.161 0 0 0-1.5-1.785c-.6 1.14-1.335 2.13-2.235 2.97l-.675-.855a9.862 9.862 0 0 0 2.175-2.91 79.046 79.046 0 0 0-1.935-1.905 46.84 46.84 0 0 0 .945-4.23h-1.2v-1.035h1.38c.15-.945.285-1.92.405-2.925zm.855 9.06c.57-1.5.9-3.195 1.005-5.1h-1.365c-.285 1.575-.57 2.88-.87 3.915.435.405.84.795 1.23 1.185zm9.945-1.62v6.39h-1.035v-.9h-4.59v.9H46.6v-6.39h6.66zm-5.625 4.47h4.59v-3.48h-4.59v3.48zm-1.62-5.82l-.165-.975c.87-.45 1.95-2.13 3.24-5.07l1.02.345c-.9 1.95-1.785 3.495-2.685 4.65a51.085 51.085 0 0 0 4.8-.525c-.42-.825-.84-1.59-1.275-2.28l.93-.45a37.871 37.871 0 0 1 2.325 4.335l-1.005.48c-.18-.405-.345-.795-.525-1.17-1.995.285-4.215.51-6.66.66zM251.29 183.705l.975.12c-.075 1.29-.255 2.445-.54 3.435l-.975-.285c.3-.96.48-2.04.54-3.27zm2.565-.225c.21.93.405 1.95.585 3.06l-1.005.225a38.303 38.303 0 0 0-.465-3.09l.885-.195zm1.485-3.81c.33.855.63 1.83.9 2.94l-.9.24c-.06-.255-.12-.51-.18-.75-1.41.42-2.775.705-4.065.87l-.285-.99c.195-.075.36-.18.495-.3.555-.54 1.215-1.44 1.995-2.7-.75.12-1.53.24-2.31.36l-.27-.99c.165-.075.315-.21.45-.405.78-1.23 1.44-2.655 2.01-4.245l1.035.405c-.735 1.725-1.485 3.12-2.235 4.17.63-.075 1.275-.165 1.905-.27.33-.57.66-1.185 1.02-1.83l1.005.36c-1.44 2.52-2.61 4.29-3.54 5.31.84-.15 1.695-.33 2.565-.555-.15-.465-.3-.915-.45-1.35l.855-.27zm.255 3.42c.36.78.66 1.635.93 2.535l-.9.39c-.27-.99-.555-1.875-.87-2.655l.84-.27zm.465-7.41h3.63v-1.92h1.065v1.92h3.585v1.035h-3.585v2.28h3.255v1.035h-7.545v-1.035h3.225v-2.28h-3.63v-1.035zm7.47 5.805v6.015h-1.05v-.69h-4.44v.69h-1.05v-6.015h6.54zm-5.49 4.305h4.44v-3.285h-4.44v3.285zm8.04-10.5h5.865v-1.5h1.11v1.5h5.835v1.035h-5.835v1.47h4.725v4.245h-3.81c1.08 1.53 2.91 2.88 5.46 4.08l-.735.93c-2.655-1.485-4.515-3.15-5.595-5.01h-.045v5.445h-1.11v-5.445h-.045c-1.14 2.04-3.03 3.72-5.685 5.04l-.63-.99c2.49-1.05 4.305-2.4 5.43-4.05h-3.765v-4.245h4.695v-1.47h-5.865v-1.035zm10.62 5.76v-2.235h-3.645v2.235h3.645zm-4.755 0v-2.235h-3.615v2.235h3.615z" fill="#2A3052"/></g></svg>
